X: 16705
T: Happy Ruinous House, The
R: slip jig
M: 9/8
K: Dmajor
M:7/8
A2dA efd|A2 dA e2f dc|A2dA efd|1 gB fB e2f dc:|2 gB fB e2f dB||
|:G2BG cde|d2 Ad a2g fd|G2BG cde|1 d2 AB d2e fd:|2 d2 AB (d3 d2)||

